X: 1
T: Schottis fr\aan Norra V\aanga
O: V\"asterg\"otland
M: 4/4
L: 1/8
K: G
|: "G"D2 DC B,2 D2 | G2 GA B4 \
| "D7"A2 AF D2 FA |1,3 "G"d2 dB G4 :|2,4 "G"G2 G2 G4 :|
|: "G"B2 BA G2 B,2 | "C"C2 CE "G"D4 \
|1,3 "D7"c2 cA F2 A2 | "G"d2 dB G4 \
:|2,4 "D7"D2 FA D2 FA | "G"G2 G2 G4 :|
